clans/Uchiha_Symbol.svg

<svg xmlns:dc="http://purl.org/dc/elements/1.1/" xmlns:cc="http://creativecommons.org/ns#" xmlns:rdf="http://www.w3.org/1999/02/22-rdf-syntax-ns#" xmlns:svg="http://www.w3.org/2000/svg" xmlns="http://www.w3.org/2000/svg" xmlns:sodipodi="http://sodipodi.sourceforge.net/DTD/sodipodi-0.dtd" xmlns:inkscape="http://www.inkscape.org/namespaces/inkscape" version="1.0" width="149.9998" height="199.99982" id="svg2" sodipodi:version="0.32" inkscape:version="0.46" sodipodi:docname="Uchiha Symbol.svg" inkscape:output_extension="org.inkscape.output.svg.inkscape">
    <metadata id="metadata7">
        <rdf:RDF>
            <cc:Work rdf:about="">
                <dc:format>image/svg+xml</dc:format>
                <dc:type rdf:resource="http://purl.org/dc/dcmitype/StillImage"/>
            </cc:Work>
        </rdf:RDF>
    </metadata>
    <sodipodi:namedview inkscape:window-height="930" inkscape:window-width="1280" inkscape:pageshadow="2" inkscape:pageopacity="0.0" guidetolerance="10.0" gridtolerance="10.0" objecttolerance="50" borderopacity="1.0" bordercolor="#666666" pagecolor="#ffffff" id="base" showgrid="false" inkscape:object-nodes="true" inkscape:snap-center="true" inkscape:snap-global="true" inkscape:snap-intersection-grid-guide="true" inkscape:zoom="0.89625" inkscape:cx="97.769572" inkscape:cy="97.115788" inkscape:window-x="0" inkscape:window-y="22" inkscape:current-layer="svg2"/>
    <defs id="defs4">
        <inkscape:perspective sodipodi:type="inkscape:persp3d" inkscape:vp_x="0 : 100 : 1" inkscape:vp_y="0 : 1000 : 0" inkscape:vp_z="149.99998 : 100 : 1" inkscape:persp3d-origin="74.999992 : 66.666667 : 1" id="perspective9"/>
    </defs>
    <path style="opacity:1;fill:#e10000;fill-opacity:1;stroke:#000000;stroke-width:5.72100019;stroke-linecap:round;stroke-linejoin:miter;stroke-miterlimit:4;stroke-dasharray:none;stroke-opacity:1" d="M 74.999921,2.8605001 C 35.178952,2.8605001 2.8605001,34.397978 2.8605001,73.256629 C 2.8605001,79.37889 3.6575449,85.314767 5.1649528,90.978874 C 21.627093,75.019259 46.803622,64.809097 74.999921,64.809097 C 103.19617,64.809097 128.37268,75.019259 144.83483,90.978874 C 146.34225,85.314767 147.13931,79.37889 147.13931,73.256629 C 147.13931,34.397978 114.82085,2.8605001 74.999921,2.8605001 z" id="path3198"/>
    <path style="fill:#ffffff;fill-opacity:1;stroke:#000000;stroke-width:5.72100019;stroke-linecap:round;stroke-linejoin:miter;stroke-miterlimit:4;stroke-dasharray:none;stroke-opacity:1" d="M 74.999908,77.380499 C 47.791253,77.380502 24.029882,88.955765 11.249999,106.16387 C 21.862144,125.69264 41.588763,139.75856 64.906172,142.94783 L 64.906172,197.13932 L 85.093644,197.13932 L 85.093644,142.94783 C 108.41103,139.75856 128.13769,125.69264 138.74982,106.16387 C 125.96995,88.955762 102.20853,77.380499 74.999908,77.380499 z" id="path3237"/>
</svg>

<svg xmlns="http://www.w3.org/2000/svg" version="1" width="150" height="200">
    <path d="M75 2.86C35.18 2.86 2.86 34.4 2.86 73.258c0 6.122.798 12.058 2.305 17.722C21.627 75.02 46.805 64.81 75 64.81c28.196 0 53.373 10.21 69.835 26.17 1.507-5.665 2.304-11.6 2.304-17.723 0-38.86-32.32-70.396-72.14-70.396z" fill="#e10000" stroke="#000" stroke-width="5.721" stroke-linecap="round"/>
    <path d="M75 77.38c-27.21 0-50.97 11.576-63.75 28.784 10.612 19.53 30.34 33.595 53.656 36.784v54.19h20.188v-54.19c23.317-3.19 43.044-17.255 53.656-36.784C125.97 88.956 102.21 77.38 75 77.38z" fill="#fff" stroke="#000" stroke-width="5.721" stroke-linecap="round"/>
</svg>
